X:1
T:St. Denys (Monk), 87.87.87
T:William Henry Monk, 1861
T:St. Denys (Monk), 87.87.87
T:Public Domain
C:William Henry Monk, 1861
Z:Public Domain
%%score ( 1 2 ) ( 3 4 )
L:1/8
M:none
K:C
V:1 treble 
V:2 treble 
V:3 bass 
V:4 bass 
V:1
 [CE]3 [CE] [CE]2 [CE]2 | [CE]2 [CE]2 [DG]2 [CE]2 | [CE]2 [DG]2 [Cc]2 [EA]2 | E2 (D[C=F]) [B,E]4 | %4
 [CE]3 [CE] [CE]2 [CE]2 | [CE]2 [CE]2 [DG]2 [CE]2 | [CE]2 [DG]2 [Cc]2 E2 | E2 (D[C=F]) [B,G]4 | %8
 [EG]2 (AG) [E^F]2 [DF]2 | [DF]2 ([DG][B,F]) [CE]2 [CE]2 | [Ec]2 (ED) (CD)(GA) | E2 z =F [CE]4 |] %12
V:2
 x8 | x8 | x8 | ^F3 x5 | x8 | x8 | x6 E2 | ^F3 x5 | x2 E2 x4 | x8 | x2 B2 A2 E2 | ^F3 D2 x3 |] %12
V:3
 [C,G,]3 [C,G,] [C,G,]2 [C,G,]2 | [A,,A,]2 [A,,A,]2 [G,,B,]2 [C,C]2 | %2
 [C,G,]2 [B,,G,]2 [A,,A,]2 [A,,C]2 | C2 (B,[D,A,]) [E,^G,]4 | [C,G,]3 [C,G,] [C,G,]2 [C,G,]2 | %5
 [A,,A,]2 [A,,A,]2 [G,,B,]2 [C,C]2 | [C,G,]2 [B,,G,]2 [A,,A,]2 [A,,C]2 | C2 (B,[D,A,]) [G,,G,]4 | %8
 (E,D,) [^C,A,]2 [D,A,]2 (D,=C,) | ([B,,G,][A,,A,])(B,A,) [C,G,]2 [C,G,]2 | %10
 (CA,) [E,^G,]2 (A,B,)(E,C,) | [D,C]2 [G,,B,]2 [C,C]4 |] %12
V:4
 x8 | x8 | x8 | D,3 x5 | x8 | x8 | x8 | D,3 x5 | B,2 x3 A,2 x | x2 G,,2 x4 | A,,2 x F,2 C2 x | %11
 x8 |] %12

